X:1
T:A Portuguesa
T:A Portuguesa
T:Alfredo Keil
T:Henrique Lopes de Mendonça
T:Hino Nacional de Portugal
C:Alfredo Keil
Z:Henrique Lopes de Mendonça
%%score { ( 1 3 ) | ( 2 4 ) }
L:1/8
Q:1/4=120
M:4/4
K:C
V:1 treble nm="Piano" snm="Pno."
V:3 treble 
V:2 bass 
V:4 bass 
V:1
!ff!"^Marcial\n" [EGce]4 [GBdg]4 | [Fcf]4 [EGce]2 [Aca]2 | [Gcg]2 c>d [GBe]2 [FBd]2 | %3
 [EGc]4- [EGc] z/!p! G/ E>C || [FA]4 G2- G>A | [CG]2 [DF]2 E>C B,>C | E4 ^F>G A>B | %7
 [B,DG]6!<(! G>!<)!B | d4 B2 (G!>(!F)!>)! | [G,B,DF]4 [G,CE]2 G>E | (C3 G,) C!<(!D!<)!EF | %11
 [B,D]4-!>(! [B,D]!>)! z z2 |!p! D3 E C2 (3(G,CE) | [G,F]3 [G,G] [G,E]3 G | %14
 c3!<(! G!<)! G _B2!>(! _A!>)! |!>(! [=B,DG]2!>)! [B,D]>!<(![B,D]!<)! [B,D]G,[B,D]F | %16
 [C_E]2 [EG]>[EG] [EG]2 FE | [B,D]2!<(! [B,D]>!<)![B,D] [B,D]G,[B,D]F | [C_E]2 [EG]>[EG] [EG]2 FE | %19
 [B,DG]4- [B,DG]7/2 [B,DG]/ || [CEGc]4 [DGB]2 (3(B,DF) | %21
 [CFA]4!mf! [EG]2 !tenuto![E,C]!tenuto![G,D]!ff! | %22
 !tenuto![CE]2 !tenuto![CE]2 !tenuto![EG]2 !tenuto![CE]2 | [B,D]4- [B,D]2 (3(CEG) | %24
!f! [CEGc]4 [DGB]2 (3(B,DF) | [CFA]4 [CEG]2 (3(EGc) | !>![Gce]4 !>![FBd]7/2 !>![EAc]/ | %27
 [EAc]4- [EAc]!>!E!>!F!>!G | [DFA]2 [DFA]2 [DFG]3 [DFG] | [CEc]4- [CEc] z z2 |] %30
V:2
!ped! [C,C]2 [E,G,C]2!ped! [G,,G,]2 [G,B,D]2!ped-up! | %1
!ped! [A,,A,]2 [F,A,C]2 [G,,G,]2 [F,,F,]2!ped-up! | %2
!ped! [E,,E,]2 [G,CE]2!ped! [G,,G,]2 [G,B,]2!ped-up! |!ped! [C,C]2 [G,,G,]2 [C,,C,]2 z2!ped-up! || %4
 [D,,D,]2 [F,A,]2 [E,,E,]2 [E,G,]2 | [A,,E,A,]2 [B,,G,]2 [C,G,]4 | %6
 A,,2 [E,G,A,]2 [D,,D,]2 [^F,A,]2 |!ped! G,6 z2!ped-up! | B,,2 [G,B,D]2 G,,2 G,2 | %9
 C,2 G,,2 C,2 G,>E, | (C,2 G,,2 E,,G,,C,E,) | G,4- G, z z2 | [G,,F,]3 [G,,F,] [G,,E,]4 | %13
 [D,,D,]2 [B,,,B,,]2 [C,,C,]4 | _E,,2 [_E,G,]4 [E,G,C]2 | [G,,G,]2 [D,,D,]2 [B,,,B,,]2 [G,,,G,,]2 | %16
 [C,,C,]2 [_E,,_E,]2 [G,,G,]2 [_G,,_A,]2 | [G,,G,]2 [D,,D,]2 [B,,,B,,]2 [G,,,G,,]2 | %18
 [C,,C,]2 [_E,,_E,]2 [G,,G,]2 [_A,,_A,]2 | %19
 [G,,G,]2 !>![G,,B,]!>![=F,,=A,] !>![E,,E,]!>![G,,G,]!>![F,,F,]!>![D,,D,] || %20
 [C,,C,]>[B,,,B,,] [C,,C,]>[E,,E,] [G,,G,]4 | [F,,F,]>[E,,E,] [F,,F,]>[A,,A,] [C,C]4 | %22
 [C,,C,]2 [E,G,]2 [C,,C,]2 [E,G,]2 | [G,,G,]2 (3G,D,B,, G,,2 [C,,C,]2 | %24
 [C,,C,]>[B,,,B,,] [C,,C,]>[E,,E,] [G,,G,]4 | [F,,F,]>[E,,E,] [F,,F,]>[A,,A,] [C,C]4 | %26
 [G,,G,]2 [G,CE]2 [G,,G,]2 [G,B,D]2 | %27
 [A,,A,]>[^G,,^G,] [A,,A,]>[C,C] [C,,E,]2 !>![D,,D,]!>![E,,E,] | z2 [F,A,]2 z2 [G,B,]2 | %29
 [C,C]2 [G,,G,]2 [C,,C,] z z2 |] %30
V:3
 x8 | x8 | x8 | x8 || x4 E4 | x8 | C4 C2 [C^F]2 | x8 | [FG]4 [DF]2 [B,D]2 | x8 | x8 | x8 | x8 | %13
 x8 | x8 | x8 | x6 C2 | x8 | x6 C2 | x8 || x8 | x8 | x8 | x8 | x8 | x8 | x8 | x8 | x8 | x8 |] %30
V:4
 x8 | x8 | x8 | x8 || x8 | x8 | x8 | [G,,G,]2 [D,,D,]2 [G,,,G,,]2 x2 | x8 | x8 | x8 | %11
 z2 D,2 B,,2 G,,2 | x8 | x8 | x8 | x8 | x8 | x8 | x8 | x8 || x8 | x8 | x8 | x8 | x8 | x8 | x8 | %27
 x8 | [D,,D,]4 [G,,G,]4 | x8 |] %30

